X: 22100
T: Knotted Cord, The
R: reel
M: 4/4
K: Bminor
B2 cA BE F2|ABce f2 ec|fecB AFEF|A2 (3cBA eAcA|
B2 (3cBA BE F2|ABce f2 ec|ABce fbaf|1 eafe cBAF:|2 eafe cBce||
fbba fbba|fbba bafe|faab faab|faab afea|
fbba fbba|fbba bafe|ABce fbaf|1 eafe cBce:|2 eafe cBAF||

